Artboard/img/icons/arrow.svg

<svg width="53" height="53" fill="none" xmlns="http://www.w3.org/2000/svg"><path fill-rule="evenodd" clip-rule="evenodd" d="M26.543 28.067L0 .889 1.016 0l25.527 26.162L52.07 0l.889.889-26.416 27.178zm0 24.892L0 25.781l1.016-.889 25.527 26.162L52.07 24.892l.889.889-26.416 27.178z" fill="#DDCFC5"/></svg>

<svg width="53" height="53" viewBox="0 0 53 53" fill="none" xmlns="http://www.w3.org/2000/svg">
<path fill-rule="evenodd" clip-rule="evenodd" d="M26.543 28.067L-1.52588e-05 0.889L1.01598 0L26.543 26.162L52.07 0L52.959 0.889L26.543 28.067ZM26.543 52.959L-1.52588e-05 25.781L1.01598 24.892L26.543 51.054L52.07 24.892L52.959 25.781L26.543 52.959Z" fill="#DDCFC5"/>
</svg>
